!!!COM: Music21
!!!OTL: Foliada da Ulla
!!!OMV: pezas_foliadas_foliada-da-ulla_foliada-da-ulla-partitura-1.musicxml
**kern
*part1
*staff1
*I"Bagpipes
*I'Bag
*clefG^2
*k[]
*M3/4
=1
!LO:TX:a:t=Presto
*MM190
!LO:TX:a:t=[quarter]=190
4r
4.ee
8ff
=||
4gg
8ggL
8ggJ
4gg
=
4gg
4.aa
8ee
=
2gg
[4ff
=
4ff]
4.ff
8gg
=
4aa
8aaL
8aaJ
4aa
=
4aa
4.bb
8ff
=
2aa
[4gg
=
4gg]
4.ee
8ff
!!linebreak:original
=
4gg
8ggL
8ggJ
4gg
!!linebreak:original
=
4gg
4.aa
8ee
=
2gg
4ff
=
4bb
2bb
=
2gg
4ff
=
4gg
2aa
=
2ff
4ee
=||
[2.ee
=
2.ee_
=
4ee]
2r
=||
4gg
4gg
4gg
=
4gg
4bb
4gg
=
2aa
[4gg
=
2.gg]
=
4ee
4ee
4ee
!!linebreak:original
=
4ee
4gg
4ee
!!linebreak:original
=
2ff
[4ee
=
2.ee_
=
2.ee_
=
2.ee]
=||
4gg
4gg
4gg
=
4gg
4bb
4gg
=
2aa
4gg
=
4aa
2bb
=
2gg
4ff
=
4gg
2aa
=
2ff
[4ee
=
2.ee]
=||
4gg
4gg
4gg
=
4gg
4bb
4gg
!!linebreak:original
=
2aa
4gg
=
4aa
2bb
=
2gg
4ff
=
4gg
2aa
=
2ff
[4ee
=
4ee]
4.ee
8ff
=||
4gg
8ggL
8ggJ
4gg
!!pagebreak:original
=
4gg
4.aa
8ee
=
2gg
[4ff
=
4ff]
4.ff
8gg
=
4aa
8aaL
8aaJ
4aa
=
4aa
4.bb
8ff
=
2aa
[4gg
=
4gg]
4.ee
8ff
=
4gg
8ggL
8ggJ
4gg
=
4gg
4.aa
8ee
=
2gg
4ff
=
4bb
2bb
!!linebreak:original
=
2gg
4ff
=
4gg
2aa
!!linebreak:original
=
2ff
[4ee
=
2.ee_
=
2.ee_
=
4ee]
4.ee
8ff
=||
[2.ee
=
2.ee_
=
8ee]
8r
2r
==
*-
!!!system-decoration: s1,s2
